!!!COM: Beethoven
!!!OTL: 24 Variationen uber Venni Amore von V. Righini
!!!Variation: Variation 15 b2
**function	**harm	**kern	**kern
*	*	*clefF4	*clefG2
*	*	*k[f#c#]	*k[f#c#]
*M2/4	*M2/4	*M2/4	*M2/4
*D:	*D:	*D:	*D:
=289	=289	=289	=289
2D	2V7	4r	24ggLL
.	.	.	24ee
.	.	.	24ggJ
.	.	.	24ff#L
.	.	.	24dd#
.	.	.	24ff#JJ
.	.	4AA 4A	24ggLL
.	.	.	24ee
.	.	.	24ggJ
.	.	.	24eeL
.	.	.	24cc#
.	.	.	24eeJJ
=290	=290	=290	=290
2D	2I	4r	24ff#LL
.	.	.	24dd
.	.	.	24ff#J
.	.	.	24ddL
.	.	.	24a
.	.	.	24ddJJ
.	.	(q8C# c#	.
.	.	8D) 8d	24aLL
.	.	.	24f#
.	.	.	24aJ
.	.	8r	24f#L
.	.	.	24d
.	.	.	24f#JJ
=291	=291	=291	=291
2D	2V7	4r	24gLL
.	.	.	24e
.	.	.	24gJ
.	.	.	24f#L
.	.	.	24d#
.	.	.	24f#JJ
.	.	4AAA 4AA	24gLL
.	.	.	24e
.	.	.	24gJ
.	.	.	24eL
.	.	.	24c#
.	.	.	24eJJ
=292	=292	=292	=292
2D	2I	4r	24f#LL
.	.	.	24d
.	.	.	24f#J
.	.	.	24dL
.	.	.	24A
.	.	.	24dJJ
.	.	(q8CC# C#	.
.	.	8DD) 8D	24ALL
.	.	.	24F#
.	.	.	24AJ
.	.	8r	24F#L
.	.	.	24D
.	.	.	24F#JJ
=293	=293	=293	=293
2D	2V7	24r	8C#L 8G
.	.	(24AAALL	.
.	.	24BBBJ	.
.	.	32CC#LL	(8eeJ
.	.	32DD	.
.	.	32EE	.
.	.	32FF#JJJ)	.
.	.	24GGLL	8cc#L
.	.	24AA	.
.	.	24BBJ	.
.	.	24C#L	8gJ)
.	.	24BB	.
.	.	24AAJJ	.
=294	=294	=294	=294
2T	2I	(24DLL	8f#L
.	.	24DD	.
.	.	24EEJ	.
.	.	32FF#LL	(8aaJ
.	.	32GG	.
.	.	32AA	.
.	.	32BBJJJ)	.
.	.	24C#LL	8ff#L
.	.	24D	.
.	.	24EJ	.
.	.	24F#L	8ddJ)
.	.	24E	.
.	.	24DJJ	.
=295	=295	=295	=295
4P	4IV	8G	(24cc#LL
.	.	.	24a
.	.	.	24bJ
.	.	8r	32cc#LL
.	.	.	32dd
.	.	.	32ee
.	.	.	32ff#JJJ)
*	*	*^	*
4D	4V7	(4AA 4E	(4G	24ggLL
.	.	.	.	24aa
.	.	.	.	24bbJ
.	.	.	.	24ccc#L
.	.	.	.	24bb
.	.	.	.	24aaJJ
=296	=296	=296	=296	=296
2T	2I	8D)	8F#)	24dddLL
.	.	.	.	24aa
.	.	.	.	24ff#J
*	*	*v	*v	*
.	.	8r	24ddL
.	.	.	24a
.	.	.	24f#JJ
.	.	4r	8d
.	.	.	8r
*-	*-	*-	*-
